libs/shared/images/icons-sharp-light/inbox-full.svg

<svg xmlns="http://www.w3.org/2000/svg" viewBox="0 0 512 512"><path d="M32 323.9l1-3.9H134.1l27.6 55.2 4.4 8.8H176 336h9.9l4.4-8.8L377.9 320H479l1 3.9V448H32V323.9zM97 64H415l56 224H368h-9.9l-4.4 8.8L326.1 352H185.9l-27.6-55.2-4.4-8.8H144 41L97 64zM0 320V448v32H32 480h32V448 320L440 32H72L0 320zM176 144H160v32h16H336h16V144H336 176zm-32 80H128v32h16H368h16V224H368 144z"/></svg>

<svg xmlns="http://www.w3.org/2000/svg" viewBox="0 0 512 512"><defs><style>.fa-secondary{opacity:.4}</style></defs><path class="fa-secondary" d="M73 288c16-64 32-128 48-192l270 0 48 192-71 0-32 64-160 0c-10.7-21.3-21.3-42.7-32-64l-71 0zm55-64l0 32 16 0 224 0 16 0 0-32-16 0-224 0-16 0zm32-80l0 32 16 0 160 0 16 0 0-32-16 0-160 0-16 0z"/><path class="fa-primary" d="M96 32L71 32 65 56.2 1 312.2l-1 3.8L0 320 0 448l0 32 32 0 448 0 32 0 0-32 0-128 0-3.9-1-3.8-64-256L441 32l-25 0L96 32zM73 288L121 96l270 0 48 192-71 0-32 64-160 0-32-64-71 0z"/></svg>
